data/pieces/simple/whiteRook.svg

<svg xmlns="http://www.w3.org/2000/svg" width="1000pt" height="1000pt" viewBox="0 0 1000 1000"><path d="M188 910V741l120-109V396l-120-80V115h180v80h41v-80h182v80h41v-80h180v201l-120 80v236l120 109v169H188" style="stroke-width:2;stroke-linecap:butt;stroke-linejoin:miter;stroke:#fff;stroke-opacity:1;stroke-miterlimit:10;fill-rule:nonzero;fill:#fff;fill-opacity:1"/><path d="M188 910V741l120-109V396l-120-80V115h180v80h41v-80h182v80h41v-80h180v201l-120 80v236l120 109v169zm60-60h504v-40H248zm0-575 120 81h264l120-81V175h-60v80H531v-80h-62v80H308v-80h-60zm30 475h444l-90-81H368zm90-152h264V427H368z" style="stroke:none;fill-rule:nonzero;fill:#000;fill-opacity:1"/></svg>

<?xml version="1.0" encoding="UTF-8"?>
<!--
    Image is based on original work of Max Froumentin (mf@w3.org) which
    used to be available at:

    http://people.w3.org/maxf/ChessGML/ChessSophia.svg

    These images are under the W3C Software Notice and License, see
    COPYING.html for details.
-->
<svg xmlns="http://www.w3.org/2000/svg" xmlns:xlink="http://www.w3.org/1999/xlink" width="1000pt" height="1000pt" viewBox="0 0 1000 1000" version="1.1">
<g id="surface0">
<path style="stroke-width:2;stroke-linecap:butt;stroke-linejoin:miter;stroke:white;stroke-opacity:1;stroke-miterlimit:10;fill-rule:nonzero;fill:white;fill-opacity:1;" d="M 188 910 L 188 741 L 308 632 L 308 396 L 188 316 L 188 115 L 368 115 L 368 195 L 409 195 L 409 115 L 591 115 L 591 195 L 632 195 L 632 115 L 812 115 L 812 316 L 692 396 L 692 632 L 812 741 L 812 910 L 188 910"/>
<path style="stroke:none;fill-rule:nonzero;fill:black;fill-opacity:1;" d="M 188 910 L 188 741 L 308 632 L 308 396 L 188 316 L 188 115 L 368 115 L 368 195 L 409 195 L 409 115 L 591 115 L 591 195 L 632 195 L 632 115 L 812 115 L 812 316 L 692 396 L 692 632 L 812 741 L 812 910 L 188 910 M 248 850 L 752 850 L 752 810 L 248 810 L 248 850 M 248 275 L 368 356 L 632 356 L 752 275 L 752 175 L 692 175 L 692 255 L 531 255 L 531 175 L 469 175 L 469 255 L 308 255 L 308 175 L 248 175 L 248 275 M 278 750 L 722 750 L 632 669 L 368 669 L 278 750 M 368 598 L 632 598 L 632 427 L 368 427 L 368 598"/>
</g>
</svg>
